!!!COM: Vivaldi, Antonio
**kern	**dynam	**kern	**dynam	**kern	**dynam	**kern	**dynam
*staff5	*staff5	*staff3	*staff3	*staff2	*staff2	*staff1	*staff1
=1-	=1-	=1-	=1-	=1-	=1-	=1-	=1-
*clefF4	*clefF4	*clefF4	*clefF4	*clefG2	*clefG2	*clefG2	*clefG2
*k[b-]	*k[b-]	*k[b-]	*k[b-]	*k[b-]	*k[b-]	*k[b-]	*k[b-]
*M3/4	*M3/4	*M3/4	*M3/4	*M3/4	*M3/4	*M3/4	*M3/4
4GG/	f	4GG/	f	4r	.	8gg\L	.
.	.	.	.	.	.	8dd\	.
4G\	.	4G\	.	8r	.	8b-\	.
.	.	.	.	8dd\L	f	8g\J	.
4GG/	.	4GG/	.	8b-\	.	8gg\	.
.	.	.	.	8g\J	.	8r	.
=2	=2	=2	=2	=2	=2	=2	=2
4FF#/	.	4FF#/	.	4r	.	8aa\L	.
.	.	.	.	.	.	8ff#\	.
4D\	.	4D\	.	8r	.	8dd\	.
.	.	.	.	8ff#\L	.	8a\J	.
4FF#/	.	4FF#/	.	8dd\	.	8aa\	.
.	.	.	.	8a\J	.	8r	.
=3	=3	=3	=3	=3	=3	=3	=3
4GG/	.	4GG/	.	4r	.	8bb-\L	.
.	.	.	.	.	.	8gg\	.
4G\	.	4G\	.	8r	.	8dd\	.
.	.	.	.	8gg\L	.	8b-\J	.
4GG/	.	4GG/	.	8dd\	.	8bb-\	.
.	.	.	.	8b-\J	.	8r	.
=4	=4	=4	=4	=4	=4	=4	=4
4FF#/	.	4FF#/	.	4r	.	8aa\L	.
.	.	.	.	.	.	(8ff#\	.
4D\	.	4D\	.	8r	.	8dd\)	.
.	.	.	.	8ff#\L	.	8a\J	.
4FF#/	.	4FF#/	.	8dd\	.	8aa\	.
.	.	.	.	8a\J	.	8r	.
=5	=5	=5	=5	=5	=5	=5	=5
4GG/	.	4GG/	.	4r	.	8bb-\L	.
.	.	.	.	.	.	8gg\	.
4G\	.	4G\	.	8r	.	8dd\	.
.	.	.	.	8gg\L	.	8b-\J	.
4GG/	.	4GG/	.	8dd\	.	8bb-\	.
.	.	.	.	8b-\J	.	8r	.
=6	=6	=6	=6	=6	=6	=6	=6
4FF#/	.	4FF#/	.	4r	.	8aa\L	.
.	.	.	.	.	.	8ff#\	.
4D\	.	4D\	.	8r	.	8dd\	.
.	.	.	.	8ff#\L	.	8a\J	.
4FF#/	.	4FF#/	.	8dd\	.	8aa\	.
.	.	.	.	8a\J	.	8r	.
=7	=7	=7	=7	=7	=7	=7	=7
4GG/	.	4GG/	.	4r	.	8gg\L	.
.	.	.	.	.	.	8dd\	.
4G\	.	4G\	.	8r	.	8b-\	.
.	.	.	.	8dd\L	.	8g\J	.
4GG/	.	4GG/	.	8b-\	.	8gg\	.
.	.	.	.	8g\J	.	8r	.
=8	=8	=8	=8	=8	=8	=8	=8
2.D\	.	2.D\	.	2.a/	.	2.ff#\	.
=9:|!	=9:|!	=9:|!	=9:|!	=9:|!	=9:|!	=9:|!	=9:|!
4GG/	pp	4GG/	pp	4r	.	8gg\L	mp
.	.	.	.	.	.	8dd\	.
4G\	f	4G\	f	8r	.	8bn\	.
.	.	.	.	8dd/L	.	8g\J	.
4GG/	.	4GG/	.	8bn/	p	8ffn\	.
.	.	.	.	8d/J	f	8r	.
=10	=10	=10	=10	=10	=10	=10	=10
4C/	.	4C/	.	4r	.	8ee-/L	.
.	.	.	.	.	.	8cc/	.
4c\	.	4c\	.	8r	.	8g/	.
.	.	.	.	8cc/L	.	8e-/J	.
4C/	.	4C/	.	8g/	.	8ee-\	.
.	.	.	.	8e-/J	.	8r	.
=11	=11	=11	=11	=11	=11	=11	=11
4AA/	.	4AA/	.	4r	.	8ff\L	.
.	.	.	.	.	.	8cc\	.
4F\	.	4F\	.	8r	.	8a\	.
.	.	.	.	8cc/L	.	8f\J	.
4AA/	.	4AA/	.	8a/	.	8ff\	.
.	.	.	.	8f/J	.	8r	.
=12	=12	=12	=12	=12	=12	=12	=12
4BB-/	.	4BB-/	.	4r	.	8dd/L	.
.	.	.	.	.	.	8b-/	.
4B-\	.	4B-\	.	8r	.	8f/	.
.	.	.	.	8ff\L	.	8d/J	.
4BB-/	.	4BB-/	.	8dd\	.	8dd\	.
.	.	.	.	8b-\J	.	8r	.
=13	=13	=13	=13	=13	=13	=13	=13
4D\	.	4D\	.	4r	.	8bb-\L	.
.	.	.	.	.	.	8ff\	.
4B-\	.	4B-\	.	8r	.	8dd\	.
.	.	.	.	8ff\L	.	8b-\J	.
4D\	.	4D\	.	8dd\	.	8bb-\	.
.	.	.	.	8b-\J	.	8r	.
=14	=14	=14	=14	=14	=14	=14	=14
4E-\	.	4E-\	.	4r	.	8bb-\L	.
.	.	.	.	.	.	8gg\	.
4e-\	.	4e-\	.	8r	.	8ee-\	.
.	.	.	.	8gg\L	.	8b-\J	.
4E-\	.	4E-\	.	8ee-\	.	8bb-\	.
.	.	.	.	8b-\J	.	8r	.
=15	=15	=15	=15	=15	=15	=15	=15
4En\	.	4En\	.	4r	.	8ccc\L	.
.	.	.	.	.	.	8gg\	.
4c\	.	4c\	.	8r	.	8een\	.
.	.	.	.	8gg\L	.	8cc\J	.
4E\	.	4E\	.	8een\	.	8ccc\	.
.	.	.	.	8cc\J	.	8r	.
=16	=16	=16	=16	=16	=16	=16	=16
4F\	.	4F\	.	4r	.	8ccc\L	.
.	.	.	.	.	.	8aa\	.
4f\	.	4f\	.	8r	.	8ff\	.
.	.	.	.	8aa\L	.	8cc\J	.
4F\	.	4F\	.	8ff\	.	8ccc\	.
.	.	.	.	8cc\J	.	8r	.
=17	=17	=17	=17	=17	=17	=17	=17
4F#\	.	4F#\	.	4r	.	8ddd\L	.
.	.	.	.	.	.	8aa\	.
4f#\	.	4f#\	.	8r	.	8ff#\	.
.	.	.	.	8aa\L	.	8dd\J	.
4F#\	.	4F#\	.	8ff#\	.	8ddd\	.
.	.	.	.	8dd\J	.	8r	.
=18	=18	=18	=18	=18	=18	=18	=18
4G\	.	4G\	.	4r	.	8ddd\L	.
.	.	.	.	.	.	8bb-\	.
4B-\	.	4B-\	.	8r	.	8gg\	.
.	.	.	.	8dd\L	.	8dd\J	.
4G\	.	4G\	.	8b-\	.	8ddd\	.
.	.	.	.	8g\J	.	8r	.
=19	=19	=19	=19	=19	=19	=19	=19
4A\	.	4A\	.	4r	.	8ccc\L	.
.	.	.	.	.	.	8aa\	.
4d\	.	4d\	.	8r	.	8ff#\	.
.	.	.	.	8aa\L	.	8dd\J	.
4D\	.	4D\	.	8ff#\	.	8ccc\	.
.	.	.	.	8dd\J	.	8r	.
=20	=20	=20	=20	=20	=20	=20	=20
4D\	.	4D\	.	4r	.	8ccc\L	.
.	.	.	.	.	.	8aa\	.
4d\	.	4d\	.	8r	.	8ff#\	.
.	.	.	.	8aa\L	.	8dd\J	.
4D\	.	4D\	.	8ff#\	.	8ccc\	.
.	.	.	.	8dd\J	.	8r	.
=21	=21	=21	=21	=21	=21	=21	=21
4D\	.	4D\	.	4r	.	8bb-\L	.
.	.	.	.	.	.	8gg\	.
4d\	.	4d\	.	8r	.	8dd\	.
.	.	.	.	8gg\L	.	8b-\J	.
4D\	.	4D\	.	8dd\	.	8bb-\	.
.	.	.	.	8b-\J	.	8r	.
=22	=22	=22	=22	=22	=22	=22	=22
4D\	.	4D\	.	4r	.	8aa\L	.
.	.	.	.	.	.	8ff#\	.
4d\	.	4d\	.	8r	.	8dd\	.
.	.	.	.	8aa\L	.	8a\J	.
4D\	.	4D\	.	8ff#\	.	8aa\	.
.	.	.	.	8dd\J	.	8r	.
=23	=23	=23	=23	=23	=23	=23	=23
4D\	p	4D\	p	4r	.	8bb-\L	p
.	.	.	.	.	.	8gg\	.
4d\	.	4d\	.	8r	.	8dd\	.
.	.	.	.	8gg\L	p	8b-\J	.
4D\	.	4D\	.	8dd\	.	8bb-\	.
.	.	.	.	8b-\J	.	8r	.
=24	=24	=24	=24	=24	=24	=24	=24
4D\	.	4D\	.	4r	.	8aa\L	.
.	.	.	.	.	.	8ff#\	.
4d\	.	4d\	.	8r	.	8dd\	.
.	.	.	.	8ff#\L	.	8a\J	.
4D\	.	4D\	.	8dd\	.	8aa\	.
.	.	.	.	8a\J	.	8r	.
=25	=25	=25	=25	=25	=25	=25	=25
4GG/	f	4GG/	f	4r	.	8gg\L	f
.	.	.	.	.	.	8dd\	.
4G\	.	4G\	.	8r	.	8b-\	.
.	.	.	.	8dd\L	f	8g\J	.
4GG/	.	4GG/	.	8b-\	.	8gg\	.
.	.	.	.	8g\J	.	8r	.
=26	=26	=26	=26	=26	=26	=26	=26
4DD/	.	4DD/	.	4r	.	8ff#/L	.
.	.	.	.	.	.	8dd/	.
4D\	.	4D\	.	8r	.	8a/	.
.	.	.	.	8dd\L	.	8d/J	.
4DD/	.	4DD/	.	8a\	.	4ff#\	.
.	.	.	.	8dd\J	.	.	.
=27	=27	=27	=27	=27	=27	=27	=27
2.GG;/	.	2.GG;/	.	2.b-;\	.	2.gg;\	.
==:|!	==:|!	==:|!	==:|!	==:|!	==:|!	==:|!	==:|!
*-	*-	*-	*-	*-	*-	*-	*-
!!!ENC: Donald Anthony
!!!END: 2004/07//
!!!RWG: not proof-read
